newicons/emoji_building_construction.svg

<?xml version="1.0" encoding="UTF-8" standalone="no"?>
<svg
   version="1.2"
   viewBox="0 0 48 48"
   id="svg10"
   xmlns="http://www.w3.org/2000/svg"
   xmlns:svg="http://www.w3.org/2000/svg">
  <defs
     id="defs1" />
  <path
     d="M 41.33158,16.079537 5.4999992,16.988465 V 11.535049 L 41.33158,12.443977 v 3.63556"
     fill="none"
     stroke="#ffffff"
     stroke-linecap="round"
     stroke-linejoin="round"
     stroke-width="1.16851"
     id="path1"
     style="stroke-width:1;stroke-dasharray:none" />
  <path
     d="M 17.963158,41.918368 H 10.173684 L 11.731578,6.0816324 h 4.673685 l 1.557895,35.8367356"
     fill="none"
     stroke="#ffffff"
     stroke-linecap="round"
     stroke-linejoin="round"
     stroke-width="1.16851"
     id="path2"
     style="stroke-width:1;stroke-dasharray:none" />
  <path
     d="M 41.33158,16.079537 5.4999992,16.988465 V 11.535049 L 41.33158,12.443977 v 3.63556"
     fill="none"
     stroke="#ffffff"
     stroke-linecap="round"
     stroke-linejoin="round"
     stroke-width="1.16851"
     id="path3"
     style="stroke-width:1;stroke-dasharray:none" />
  <path
     d="M 10.952632,34.906833 H 17.18421"
     fill="none"
     stroke="#ffffff"
     stroke-linecap="round"
     stroke-linejoin="round"
     stroke-width="1.16851"
     id="path4"
     style="stroke-width:1;stroke-dasharray:none" />
  <path
     d="M 10.952632,27.895298 H 17.18421"
     fill="none"
     stroke="#ffffff"
     stroke-linecap="round"
     stroke-linejoin="round"
     stroke-width="1.16851"
     id="path5"
     style="stroke-width:1;stroke-dasharray:none" />
  <path
     d="m 11.342105,22.441882 h 5.452632"
     fill="none"
     stroke="#ffffff"
     stroke-linecap="round"
     stroke-linejoin="round"
     stroke-width="1.16851"
     id="path6"
     style="stroke-width:1;stroke-dasharray:none" />
  <path
     d="M 22.636843,16.209406 V 12.314109"
     fill="none"
     stroke="#ffffff"
     stroke-linecap="round"
     stroke-linejoin="round"
     stroke-width="1.16851"
     id="path7"
     style="stroke-width:1;stroke-dasharray:none" />
  <path
     d="M 28.868421,16.209406 V 12.314109"
     fill="none"
     stroke="#ffffff"
     stroke-linecap="round"
     stroke-linejoin="round"
     stroke-width="1.16851"
     id="path8"
     style="stroke-width:1;stroke-dasharray:none" />
  <path
     d="M 35.1,24.77906 V 12.314109"
     fill="none"
     stroke="#ffffff"
     stroke-linecap="round"
     stroke-linejoin="round"
     stroke-width="1.16851"
     id="path9"
     style="stroke-width:1;stroke-dasharray:none" />
  <path
     d="m 27.7,24.77906 h 14.800001 v 3.116238 H 27.7 V 24.77906"
     fill="none"
     stroke="#ffffff"
     stroke-linecap="round"
     stroke-linejoin="round"
     stroke-width="1.16851"
     id="path10"
     style="stroke-width:1;stroke-dasharray:none" />
</svg>

<?xml version="1.0" encoding="UTF-8"?><svg id="b" xmlns="http://www.w3.org/2000/svg" viewBox="0 0 48 48"><defs><style>.m{fill:none;stroke:#fff;stroke-linecap:round;stroke-linejoin:round;}</style></defs><path id="c" class="m" d="m41.3316,16.0795l-35.8316.9089v-5.4534l35.8316.9089v3.6356"/><path id="d" class="m" d="m17.9632,41.9184h-7.7895l1.5579-35.8367h4.6737l1.5579,35.8367"/><path id="e" class="m" d="m41.3316,16.0795l-35.8316.9089v-5.4534l35.8316.9089v3.6356"/><path id="f" class="m" d="m10.9526,34.9068h6.2316"/><path id="g" class="m" d="m10.9526,27.8953h6.2316"/><path id="h" class="m" d="m11.3421,22.4419h5.4526"/><path id="i" class="m" d="m22.6368,16.2094v-3.8953"/><path id="j" class="m" d="m28.8684,16.2094v-3.8953"/><path id="k" class="m" d="m35.1,24.7791v-12.465"/><path id="l" class="m" d="m27.7,24.7791h14.8v3.1162h-14.8v-3.1162"/></svg>
